svg/snow-sharp.svg

<?xml version="1.0" encoding="UTF-8" standalone="no"?>
<svg
   xmlns:dc="http://purl.org/dc/elements/1.1/"
   xmlns:cc="http://creativecommons.org/ns#"
   xmlns:rdf="http://www.w3.org/1999/02/22-rdf-syntax-ns#"
   xmlns:svg="http://www.w3.org/2000/svg"
   xmlns="http://www.w3.org/2000/svg"
   xmlns:sodipodi="http://sodipodi.sourceforge.net/DTD/sodipodi-0.dtd"
   xmlns:inkscape="http://www.inkscape.org/namespaces/inkscape"
   class="ionicon"
   viewBox="0 0 512 512"
   version="1.1"
   id="svg6"
   sodipodi:docname="snow-sharp.svg"
   inkscape:version="1.0.2 (e86c8708, 2021-01-15)">
  <metadata
     id="metadata12">
    <rdf:RDF>
      <cc:Work
         rdf:about="">
        <dc:format>image/svg+xml</dc:format>
        <dc:type
           rdf:resource="http://purl.org/dc/dcmitype/StillImage" />
      </cc:Work>
    </rdf:RDF>
  </metadata>
  <defs
     id="defs10" />
  <sodipodi:namedview
     pagecolor="#ffffff"
     bordercolor="#666666"
     borderopacity="1"
     objecttolerance="10"
     gridtolerance="10"
     guidetolerance="10"
     inkscape:pageopacity="0"
     inkscape:pageshadow="2"
     inkscape:window-width="689"
     inkscape:window-height="480"
     id="namedview8"
     showgrid="false"
     inkscape:zoom="1.3027344"
     inkscape:cx="256"
     inkscape:cy="256"
     inkscape:window-x="44"
     inkscape:window-y="25"
     inkscape:window-maximized="0"
     inkscape:current-layer="svg6" />
  <title
     id="title2">Snow</title>
  <path
     style="color:#000000;font-style:normal;font-variant:normal;font-weight:normal;font-stretch:normal;font-size:medium;line-height:normal;font-family:sans-serif;font-variant-ligatures:normal;font-variant-position:normal;font-variant-caps:normal;font-variant-numeric:normal;font-variant-alternates:normal;font-variant-east-asian:normal;font-feature-settings:normal;font-variation-settings:normal;text-indent:0;text-align:start;text-decoration:none;text-decoration-line:none;text-decoration-style:solid;text-decoration-color:#000000;letter-spacing:normal;word-spacing:normal;text-transform:none;writing-mode:lr-tb;direction:ltr;text-orientation:mixed;dominant-baseline:auto;baseline-shift:baseline;text-anchor:start;white-space:normal;shape-padding:0;shape-margin:0;inline-size:0;clip-rule:nonzero;display:inline;overflow:visible;visibility:visible;isolation:auto;mix-blend-mode:normal;color-interpolation:sRGB;color-interpolation-filters:linearRGB;solid-color:#000000;solid-opacity:1;vector-effect:none;fill:#000000;fill-opacity:1;fill-rule:nonzero;stroke-width:1;stroke-linecap:butt;stroke-linejoin:miter;stroke-miterlimit:4;stroke-dasharray:none;stroke-dashoffset:0;stroke-opacity:1;color-rendering:auto;image-rendering:auto;shape-rendering:auto;text-rendering:auto;enable-background:accumulate;stop-color:#000000;stop-opacity:1;stroke:none;opacity:1"
     d="m 447.88,313.27 19.25,-10.64 -21.28,-38.51 -19.25,10.64 c -14.76048,8.16731 -27.83819,19.05975 -38.54,32.1 L 300,256 388.07,205.14 c 10.70181,13.04025 23.77952,23.93269 38.54,32.1 l 19.25,10.64 21.28,-38.51 -19.25,-10.64 c -7.72958,-4.26885 -14.78304,-9.66089 -20.93,-16 L 480,152.05 458,114 405,144.58 c -2.43129,-8.49867 -3.58392,-17.31192 -3.42,-26.15 l 0.41,-22 -44,-0.82 -0.41,22 c -0.31026,16.85144 2.5704,33.60945 8.49,49.39 L 278,217.89 V 116.18 c 16.64045,-2.75245 32.60872,-8.63282 47.06,-17.33 L 343.9,87.5 321.19,49.81 302.35,61.16 C 294.77694,65.713603 286.57126,69.120561 278,71.27 V 16 H 234 V 71.27 C 225.42874,69.120561 217.22306,65.713603 209.65,61.16 L 190.81,49.81 168.1,87.5 186.94,98.85 c 14.45128,8.69718 30.41955,14.57755 47.06,17.33 V 217.89 L 145.93,167 c 5.93822,-15.79046 8.83254,-32.56259 8.53,-49.43 l -0.41,-22 -44,0.82 0.41,22 c 0.16392,8.83808 -0.98871,17.65133 -3.42,26.15 L 54,114 32,152.1 85.05,182.74 c -6.146961,6.33911 -13.200419,11.73115 -20.93,16 l -19.25,10.63 21.28,38.51 19.25,-10.64 c 14.76048,-8.16731 27.83819,-19.05975 38.54,-32.1 L 212,256 123.93,306.86 c -10.70181,-13.04025 -23.77952,-23.93269 -38.54,-32.1 l -19.24,-10.64 -21.28,38.51 19.25,10.64 c 7.729581,4.26885 14.783039,9.66089 20.93,16 L 32,360 l 22,38.1 53.05,-30.63 c 2.43129,8.49867 3.58392,17.31192 3.42,26.15 l -0.41,22 44,0.82 0.41,-22 c 0.30061,-16.8714 -2.59713,-33.64707 -8.54,-49.44 L 234,294.11 v 101.71 c -16.64045,2.75245 -32.60872,8.63282 -47.06,17.33 l -18.84,11.35 22.71,37.69 18.84,-11.35 c 7.57306,-4.5536 15.77874,-7.96056 24.35,-10.11 V 496 h 44 v -55.27 c 8.57126,2.14944 16.77694,5.5564 24.35,10.11 l 18.84,11.35 22.71,-37.69 -18.84,-11.35 C 310.60872,404.45282 294.64045,398.57245 278,395.82 V 294.11 L 366.07,345 c -5.93822,15.79046 -8.83254,32.56259 -8.53,49.43 l 0.41,22 44,-0.82 -0.41,-22 c -0.15491,-8.85345 1.01125,-17.68052 3.46,-26.19 l 53,30.63 22,-38.05 -53,-30.69 c 6.12892,-6.34933 13.16544,-11.75478 20.88,-16.04 z"
     id="path4" />
</svg>

<svg xmlns="http://www.w3.org/2000/svg" width="512" height="512" viewBox="0 0 512 512"><title>ionicons-v5-q</title><path d="M447.88,313.27l19.25-10.64-21.28-38.51L426.6,274.76a133.42,133.42,0,0,0-38.54,32.1L300,256l88.07-50.86a133.42,133.42,0,0,0,38.54,32.1l19.25,10.64,21.28-38.51-19.25-10.64a89.27,89.27,0,0,1-20.93-16L480,152.05,458,114,405,144.58a89.07,89.07,0,0,1-3.42-26.15l.41-22-44-.82-.41,22A133.62,133.62,0,0,0,366.07,167L278,217.89V116.18a133.52,133.52,0,0,0,47.06-17.33L343.9,87.5,321.19,49.81,302.35,61.16A89.5,89.5,0,0,1,278,71.27V16H234V71.27a89.5,89.5,0,0,1-24.35-10.11L190.81,49.81,168.1,87.5l18.84,11.35A133.52,133.52,0,0,0,234,116.18V217.89L145.93,167a133.62,133.62,0,0,0,8.53-49.43l-.41-22-44,.82.41,22a89.07,89.07,0,0,1-3.42,26.15L54,114l-22,38.1,53.05,30.64a89.27,89.27,0,0,1-20.93,16L44.87,209.37l21.28,38.51L85.4,237.24a133.42,133.42,0,0,0,38.54-32.1L212,256l-88.07,50.86a133.42,133.42,0,0,0-38.54-32.1L66.15,264.12,44.87,302.63l19.25,10.64a89.27,89.27,0,0,1,20.93,16L32,360l22,38.1,53.05-30.63a89.07,89.07,0,0,1,3.42,26.15l-.41,22,44,.82.41-22A133.62,133.62,0,0,0,145.93,345L234,294.11V395.82a133.52,133.52,0,0,0-47.06,17.33L168.1,424.5l22.71,37.69,18.84-11.35A89.5,89.5,0,0,1,234,440.73V496h44V440.73a89.5,89.5,0,0,1,24.35,10.11l18.84,11.35L343.9,424.5l-18.84-11.35A133.52,133.52,0,0,0,278,395.82V294.11L366.07,345a133.62,133.62,0,0,0-8.53,49.43l.41,22,44-.82-.41-22A89.07,89.07,0,0,1,405,367.42L458,398.05,480,360,427,329.31A89.27,89.27,0,0,1,447.88,313.27Z"/></svg>
